X:74
T:Baltiorum
R:slip jig
Z:hn-slipjig-74
M:9/8
L:1/8
K:G
g2g ege dBG | g2g ege f2d | g2g ege dBG | A2g ege f2d :|
|: BAG cBA dBG | BAG cBA d2G | BAG cBA dBG | A2g ege f2d :|
<end>
<start>
